X:1
T:Comme facette mammeta
T:Comme facette mammeta
T:Capaldo - Gambardella
T:E pe' fá sti ttrezze d'oro,e pe' fá sti ttrezze d'oro... Mamma toja s'appezzentette, mamma toja s'appezzentette... Bella mia, tu qua' muneta!? bella mia, tu qua' muneta!? Vuó' sapé che nce servette? vuó' sapé che nce servette?... Na miniera sana sana, tutta fatta a filagrana, nce vulette pe' sti ttrezze, che, a vasá, nun ce sta prezzo! Nun c'è bisogno 'a zingara, p'andiviná, Cuncè'... comme t'ha fatto mámmeta, 'o ssaccio meglio 'e te...
T:E pe' fá 'sta vocca bella, e pe' fá 'sta vocca bella... Nun servette 'a stessa dose, nun servette 'a stessa dose... Vuó' sapé che nce mettette? Vuó' sapé che nce mettette?... mo te dico tuttecosa... mo te dico tuttecosa: nu panaro chino, chino, tutt''e fravule 'e ciardino... Mèle, zuccaro e cannella: te 'mpastaje 'sta vocca bella... Nun c'è bisogno 'a zingara p'andiviná, Cuncè'... Comme t'ha fatto mámmeta, 'o ssaccio meglio 'e te...
T:Pubblico dominio
T:Pubblico dominio
T:Pubblico dominio
C:Capaldo - Gambardella
Z:Pubblico dominio
%%score 1 2 3
L:1/8
Q:3/8=100
M:6/8
K:D
V:1 treble nm="Voce"
V:2 treble nm="Mandolino"
V:3 treble-8 nm="Chitarra acustica"
V:1
 z6 | z6 | z6 | z6 | z6 | z6 | z6 ||[K:F] z2 z z D E | F2 F F2 F | F/E/ D3 D E | F2 F F2 F | %11
w: |||||||Quan\- no|mam\- ma\- ta t'ha|fat _ te Quan\- no|mam\- me\- ta t'ha|
 G/F/ E2- E3- | E6- | E2 z z (E F) | (G2 F E2 F) | (G2 F E2 F) | (G2 F E2 F) | F/E/ D2- D3- | D6- | %19
w: fat _ te *||* Vuò ~sa|pé com\- me fa\-|cet\- te? Vuò sa\-|pé com\- me fa\-|cet _ te? *||
 D2 z z D E | F2 F F2 F | (F/E/ D2-) D (D E) | F2 F F2 F | (G/F/ E2-) E3- | E6- | E2 z z EF | %26
w: * Pe' 'mpas\-|tà sti car\- ne|bel _ le, * Pe' 'mpas\-|tà sti car\- ne|bel _ le *||* Tut\- to|
 G2 F E2 F | G2 F E2 F | G2 F E2 F ||[K:D] (3E/D/E/ D2- D3- | D2 z A2 A | A2 B B2 B | B2 A A2 A | %33
w: chel\- lo ca met\-|tet\- te? Tut\- to|chel\- lo ca met\-|tet _ _ te? *|* Cien\- to|ro\- se 'ncap\- puc\-|cia\- te dint' 'a|
 A2 B B2 B | (3(B/c/B/) G2- G3- | G6- | G2 z A2 A | A2 A B2 B | A2 A B2 B | (A2 G F2 E) | %40
w: màr\- tu\- la 'mmes\-|ca _ _ te? *||* Lat\- tee|rro\- se ro\- see|lat\- te, te fa\-|cet\- te 'ncopp' 'o|
 F/E/ D2 D3- | D6- | D2 z z2 A | A2 B B2 B | B2 A A2 A | A2 B B2 B | (3(B/c/B/) G2 G3- | G6- | %48
w: fat _ to! *||* Nun|c'è bi\- sogn' 'a|zin\- ga\- ra p'ad\-|du\- vi\- nà, Cun\-|cé _ _ _ _|_|
 G2 z z2 A | A2 A A2 B | c2 B A2 B |1 A2 G F2 E | D6- | D6- | D3 z z2 :|2 A2 A B2 c || d6- | d6- | %58
w: * Com\-|me t'ha fat\- te|màm\- me\- ta 'o|ssac\- cio meg\- li'~'e|te.|||ssac\- cio meg\- li'~'e|te.||
 d3 z z2 |] %59
w: |
V:2
!f! [Ff]2 z efe | [Fd]2 z efe | [Fd]2 z [Fe]2 z | [Gc]6 | [Ge]2 z ded | [Gc]2 z BcB | %6
 [GA]2 z [Ge]2 z ||[K:F]!mp! d z z z DE | F2 F F2 F | F/E/ D3 DE | F2 F F2 F | %11
 G/F/ E2 z [G^c][Gc] |!mf! z [G^c][Gc] z [Gc][Gc] | [G^c] z z z!mp! EF | G2 F E2 F | G2 F E2 F | %16
 G2 F E2 F | F/E/ D2 z [FA][FA] | z [FA][FA] z!mf! [FA][FA] | [Fd] z z z DE | F2 F F2 F | %21
 F/E/ D3 DE | F2 F F2 F | G/F/ E2 z [G^c][Gc] | z [G^c][Gc] z!mf! [Gc][Gc] | [G^c] z z z!mp! EF | %26
 G2 F E2 F | G2 F E2 F | G2 F E2 F ||[K:D] (3E/=F/E/ D2- D3- | D2 z!mp! A2 A | A2 B A2 B | %32
 B2 A A2 A | A2 B B2 B | (3B/c/B/ G2 z [Gc][Gc] | z [Gc][Gc] z!mf! [Gc][Gc] | [Gc]2 z!mp! A2 A | %37
 A2 A B2 B | A2 A B2 B | A2 G F2 E | F/E/ D2 z [FA][FA] | z [FA][FA] z!mf! [FA][FA] | %42
 [Fd] z z z2 [fa] |!mf! [fa]2 [fb] [fb]2 [fb] | [fb]2 [fa] [fa]2 [fa] | [fa]2 [fb] [fb]2 [fb] | %46
 (3b/c'/b/ g2 z [Gc][Gc] | z [Gc][Gc] z [Gc][Gc] | [Gc]2 z z2 A | A2 A A2 B | c2 B A2 B |1 %51
 A2 G F2 E | D2 z [FA][FA] z | z [FA][FA] z [FA][FA] | [FAd]3 z z2 :|2 A2 A B2 c || %56
 d2 z [FA][FA] z | z [FA][FA] z [FA][FA] | [FAd] z z!f! [dfa] z !fermata!z |] %59
V:3
!f! D2 [df] A2 [df] | D2 [df] A2 [df] | D2 [df] A2 [df] | E2 [cg] A2 [cg] | E2 [cg] A2 [cg] | %5
 E2 [cg] A2 [cg] | E2 [cg] A2 [cg] ||[K:F]!mp! D2 [df] A2 [df] | D2 [df] A2 [df] | %9
 D2 [df] A2 [df] | D2 [df] A2 [df] | E2 [^cg]!f! A,2 [cg] | ^C2 [^cg] E2 [cg] | %13
 A2!mp! [^cg] A2 [cg] | E2 [^cg] A2 [cg] | E2 [^cg] A2 [cg] | E2 [^cg] A2 [cg] | D2 [df] D2 [df] | %18
 D2 [df] A2 [df] | D2!mp! [df] A2 [df] | D2 [df] A2 [df] | D2 [df] A2 [df] | D2 [df] A2 [df] | %23
 E2 [^cg]!f! A,2 [cg] | ^C2 [^cg] E2 [cg] | A2!mp! [^cg] A2 [cg] | E2 [^cg] A2 [cg] | %27
 E2 [^cg] A2 [cg] | E2 [^cg] A2 [cg] ||[K:D] D2 [df] A2 [df] |!mp! D2 [df] A2 [df] | %31
 D2 [df] A2 [df] | D2 [df] A2 [df] | D2 [df] A2 [df] | E2 [cg]!f! A,2 [cg] | C2 [cg] E2 [cg] | %36
 A2!mp! [cg] A2 [cg] | E2 [cg] A2 [cg] | E2 [cg] A2 [cg] | E2 [cg] A2 [cg] | D2 [df]!f! A,2 [df] | %41
 D2 [df] A2 [df] | A2 [df] A2 [df] |!f! D2 [df] A2 [df] | D2 [df] A2 [df] | D2 [df] A2 [df] | %46
 E2 [cg]!ff! B,2 [cg] | C2 [cg] E2 [cg] | A2 [cg]!f! A2 [cg] | E2 [cg] A2 [cg] | E2 [cg] A2 [cg] |1 %51
 E2 [cg] A2 [cg] | D2 [cg]!ff! D3 | F3 A3 | D3 z z2 :|2 E2 [cg] A2 [cg] || D2 [cg]!ff! D3 | F3 A3 | %58
 z2 z D z !fermata!z |] %59

